build/img/social-icons/facebook.svg

<svg width="32" height="32" viewBox="0 0 32 32" fill="none" xmlns="http://www.w3.org/2000/svg">
<path d="M23.9987 0.00665814L19.849 0C15.187 0 12.1743 3.09104 12.1743 7.87524V11.5063H8.002C7.64146 11.5063 7.34951 11.7985 7.34951 12.1591V17.42C7.34951 17.7806 7.6418 18.0725 8.002 18.0725H12.1743V31.3475C12.1743 31.708 12.4662 32 12.8268 32H18.2704C18.6309 32 18.9229 31.7077 18.9229 31.3475V18.0725H23.8013C24.1618 18.0725 24.4537 17.7806 24.4537 17.42L24.4557 12.1591C24.4557 11.986 24.3868 11.8202 24.2647 11.6977C24.1425 11.5752 23.976 11.5063 23.8029 11.5063H18.9229V8.4282C18.9229 6.94876 19.2754 6.19773 21.2026 6.19773L23.998 6.19673C24.3582 6.19673 24.6502 5.90443 24.6502 5.54423V0.659155C24.6502 0.299283 24.3585 0.00732395 23.9987 0.00665814Z" fill="white"/>
</svg>

<svg width="32" height="32" fill="none" xmlns="http://www.w3.org/2000/svg"><path d="M23.999.007L19.849 0c-4.662 0-7.675 3.091-7.675 7.875v3.631H8.002a.652.652 0 0 0-.652.653v5.261c0 .36.292.652.652.652h4.172v13.276c0 .36.292.652.653.652h5.443c.36 0 .653-.292.653-.652V18.072H23.8c.36 0 .653-.292.653-.653l.002-5.26a.654.654 0 0 0-.653-.654h-4.88V8.428c0-1.48.352-2.23 2.28-2.23l2.795-.001c.36 0 .652-.293.652-.653V.66A.653.653 0 0 0 24 .007z" fill="#fff"/></svg>
